X:1
T: Lady Charlotte of Braid's Strathspey
C:
R:Strathspey
Q: 128
K:D
M:4/4
L:1/16
|:A2|d3e d3B AF3 D3E|FB3 B3A FB3 B3c|d3e d3B AF3 D3F|E3D E3F D4 D3A|
d3e d3B AF3 D3E|FB3 B3A FB3 B3c|d3e d3B AF3 D3F|E3D E3F D4 d2g2|
f2ed a3d f3d a3d|c2BA e3A c2BA e3g|f2ed a3d f3d a3d|g3b a3g fd3 d3g|
f2ed a3d f3d a3d|c2BA e3A c2BA e3A|((3B2c2d2) ((3c2d2e2) ((3d2e2f2) ((3e2f2g2) |f3b a3g fd3 d2:|
